korla/apps/scalable/sublime-merge.svg

<svg xmlns="http://www.w3.org/2000/svg" width="48" height="48" version="1">
 <rect style="opacity:0.2" width="40" height="40" x="4" y="5" rx="2" ry="2"/>
 <rect style="fill:#4f4f4f" width="40" height="40" x="4" y="4" rx="2" ry="2"/>
 <path fill="#fff" style="opacity:0.1" d="m6 4c-1.108 0-2 0.892-2 2v1c0-1.108 0.892-2 2-2h36c1.108 0 2 0.892 2 2v-1c0-1.108-0.892-2-2-2h-36z"/>
 <path style="opacity:0.2;fill-rule:evenodd" d="M 14.449219 12.410156 C 14.294089 12.437556 14.150064 12.52484 14.052734 12.664062 L 10.111328 18.291016 C 9.9160386 18.569461 9.9839033 18.953148 10.261719 19.148438 L 18.667969 24.974609 L 24.240234 21.103516 C 24.360558 21.019096 24.501969 20.983432 24.638672 20.994141 L 24.642578 20.990234 L 26.939453 20.990234 L 14.910156 12.511719 C 14.771249 12.414079 14.604348 12.382753 14.449219 12.410156 z M 37.820312 24.564453 C 37.989271 24.731242 38.032163 24.973003 37.964844 25.185547 C 38.033224 24.972245 37.990244 24.731267 37.820312 24.564453 z"/>
 <path style="fill:#9adede;fill-rule:evenodd" d="M 14.449219 11.410156 C 14.294089 11.43756 14.150064 11.52484 14.052734 11.664062 L 10.111328 17.291016 C 9.9160385 17.569461 9.9839036 17.953148 10.261719 18.148438 L 19.388672 24.474609 L 24.240234 21.103516 C 24.360558 21.019096 24.501969 20.983432 24.638672 20.994141 L 24.642578 20.990234 L 33.953125 20.990234 C 34.120066 20.990234 34.271938 21.057665 34.382812 21.166016 C 34.396043 21.178616 34.523144 21.29904 34.708984 21.5 L 34.708984 21.494141 L 37.753906 24.5 L 37.820312 24.435547 C 38.060329 24.1949 38.06254 23.802238 37.820312 23.564453 L 34.855469 20.654297 C 34.597813 20.375222 34.410911 20.206463 34.394531 20.189453 C 34.282397 20.075432 34.125736 20.005859 33.953125 20.005859 L 26.960938 20.005859 L 14.910156 11.511719 C 14.771249 11.414074 14.604348 11.382753 14.449219 11.410156 z"/>
 <path style="opacity:0.2;fill-rule:evenodd" d="m 24.639189,20.994005 0.0025,-0.0038 h 9.311542 c 0.166941,0 0.318763,0.06678 0.429637,0.175131 0.01323,0.0126 0.139853,0.132923 0.325693,0.333883 v -0.0057 l 3.111407,3.071448 c 0.241563,0.238461 0.240017,0.629967 0,0.870614 l -2.941946,2.907166 c -0.268996,0.294194 -0.468065,0.472475 -0.484445,0.489484 -0.112134,0.114654 -0.267735,0.18584 -0.440346,0.18584 H 26.956818 L 14.90933,37.487478 c -0.277815,0.19529 -0.662095,0.127254 -0.856755,-0.150562 L 10.111521,31.708212 C 9.9162314,31.429766 9.9842678,31.011966 10.262083,30.816677 L 24.241049,21.10299 c 0.120324,-0.08442 0.261437,-0.119694 0.39814,-0.108985 z"/>
 <path style="fill:#00c8c6;fill-rule:evenodd" d="m 24.639189,19.994293 0.0025,-0.0038 h 9.311542 c 0.166941,0 0.318763,0.06678 0.429637,0.175131 0.01323,0.0126 0.139853,0.132923 0.325693,0.333883 v -0.0057 l 3.111407,3.071448 c 0.241563,0.238461 0.240017,0.629967 0,0.870614 l -2.941946,2.907166 c -0.268996,0.294194 -0.468065,0.472475 -0.484445,0.489484 -0.112134,0.114654 -0.267735,0.18584 -0.440346,0.18584 H 26.956818 L 14.90933,36.487766 c -0.277815,0.19529 -0.662095,0.127254 -0.856755,-0.150562 L 10.111521,30.7085 C 9.9162314,30.430054 9.9842678,30.012254 10.262083,29.816965 l 13.978966,-9.713687 c 0.120324,-0.08442 0.261437,-0.119694 0.39814,-0.108985 z"/>
</svg>

<svg clip-rule="evenodd" fill-rule="evenodd" stroke-linejoin="round" stroke-miterlimit="2" viewBox="0 0 48 48" xmlns="http://www.w3.org/2000/svg">
 <linearGradient id="a" x2="1" gradientTransform="matrix(0 -33.6872 33.6872 0 923.28 40.4502)" gradientUnits="userSpaceOnUse">
  <stop stop-color="#3c3c3c" offset="0"/>
  <stop stop-color="#676767" offset="1"/>
 </linearGradient>
 <path d="m39.44 45.668h-30.88c-3.438 0-6.228-2.79-6.228-6.228v-30.88c0-3.438 2.79-6.228 6.228-6.228h30.88c3.438 0 6.228 2.79 6.228 6.228v30.88c0 3.438-2.79 6.228-6.228 6.228z" fill="url(#a)"/>
 <path d="m14.449 11.41c-.155.028-.299.115-.396.254l-3.942 5.627c-.195.278-.127.662.151.857l9.127 6.327 4.851-3.371c.121-.085.262-.121.399-.11l.004-.004h9.31c.167 0 .319.068.43.176.013.013.14.133.326.334v-.006l3.045 3.006.066-.064c.24-.241.243-.634 0-.872l-2.965-2.91c-.257-.279-.444-.448-.46-.465-.113-.114-.269-.183-.442-.183h-6.992l-12.051-8.494c-.139-.098-.306-.129-.461-.102z" fill="#9adede"/>
 <path d="m24.639 19.994.003-.004h9.311c.167 0 .319.067.43.176.013.012.14.133.326.334v-.006l3.111 3.071c.242.239.24.63 0 .871l-2.942 2.907c-.269.294-.468.473-.484.49-.113.114-.268.185-.441.185h-6.996l-12.048 8.47c-.277.195-.662.127-.856-.151l-3.941-5.628c-.196-.279-.128-.697.15-.892l13.979-9.714c.12-.084.261-.119.398-.109z" fill="#00c8c6"/>
</svg>
